X:270
T:The Cliffs of Moher
M:6/8
L:1/8
K:ADor
a3 bag|eaf ged|c2 A BAG|EFG ABd|
a2 a bag|eaf ged|c2 A BAG|EFG A3 :|
efe dBA|efe dBA|G2 c dBA|GAB dBd|
efe dBA|efe dBA|GAB dBA|BAG A3 |
gfe dBA|gfe dBA|G2 c DBA|GAB dBd|
efe ded|cdc B3|EFG AGA|DB,G, A,3 |>|
